Numix/64/apps/salut.svg

<?xml version="1.0" encoding="UTF-8" standalone="yes"?>
<svg xmlns="http://www.w3.org/2000/svg" xmlns:xlink="http://www.w3.org/1999/xlink" width="64px" height="64px" viewBox="0 0 48 48" version="1.1">
  <g id="surface1">
    <path style=" stroke:none;fill-rule:nonzero;fill:rgb(29.019608%,54.901961%,61.568627%);fill-opacity:1;" d="M 23.019531 18 L 24.980469 18 C 27.917969 18 28 21.058594 28 21.058594 L 28 23.6875 C 28 24.6875 26 26.746094 26 26.746094 L 26 28.0625 L 30 30.25 L 30 32 L 18 32 L 18 30.25 L 22 28.0625 L 22 26.746094 C 22 26.746094 19.992188 24.6875 20 23.6875 L 20 21.058594 C 20 21.058594 20.082031 18 23.019531 18 Z M 23.019531 18 "/>
    <path style=" stroke:none;fill-rule:nonzero;fill:rgb(29.019608%,54.901961%,61.568627%);fill-opacity:1;" d="M 24 6 C 14.066406 6 6 14.066406 6 24 C 6 33.933594 14.066406 42 24 42 C 33.933594 42 42 33.929688 42 24 C 42 14.066406 33.933594 6 24 6 Z M 24 7.5 C 33.125 7.5 40.5 14.878906 40.5 24 C 40.5 33.121094 33.125 40.5 24 40.5 C 14.875 40.5 7.5 33.121094 7.5 24 C 7.5 14.878906 14.875 7.5 24 7.5 Z M 24 7.5 "/>
    <path style=" stroke:none;fill-rule:nonzero;fill:rgb(29.019608%,54.901961%,61.568627%);fill-opacity:1;" d="M 24 11.5 C 17.105469 11.5 11.5 17.105469 11.5 24 C 11.5 30.894531 17.105469 36.5 24 36.5 C 30.894531 36.5 36.5 30.894531 36.5 24 C 36.5 17.105469 30.894531 11.5 24 11.5 Z M 24 13 C 30.085938 13 35 17.917969 35 24 C 35 30.085938 30.085938 35 24 35 C 17.914062 35 13 30.082031 13 24 C 13 17.914062 17.914062 13 24 13 Z M 24 13 "/>
    <path style=" stroke:none;fill-rule:nonzero;fill:rgb(29.019608%,54.901961%,61.568627%);fill-opacity:1;" d="M 14.46875 20.621094 C 14.46875 21.613281 13.664062 22.421875 12.667969 22.421875 C 11.675781 22.421875 10.867188 21.613281 10.867188 20.621094 C 10.867188 19.625 11.675781 18.820312 12.667969 18.820312 C 13.664062 18.820312 14.46875 19.625 14.46875 20.621094 Z M 14.46875 20.621094 "/>
    <path style=" stroke:none;fill-rule:nonzero;fill:rgb(29.019608%,54.901961%,61.568627%);fill-opacity:1;" d="M 35.992188 18.246094 C 35.992188 19.238281 35.1875 20.046875 34.191406 20.046875 C 33.199219 20.046875 32.390625 19.238281 32.390625 18.246094 C 32.390625 17.25 33.199219 16.445312 34.191406 16.445312 C 35.1875 16.445312 35.992188 17.25 35.992188 18.246094 Z M 35.992188 18.246094 "/>
    <path style=" stroke:none;fill-rule:nonzero;fill:rgb(29.019608%,54.901961%,61.568627%);fill-opacity:1;" d="M 26.320312 6.871094 C 26.320312 7.867188 25.515625 8.671875 24.519531 8.671875 C 23.527344 8.671875 22.722656 7.867188 22.722656 6.871094 C 22.722656 5.875 23.527344 5.070312 24.519531 5.070312 C 25.515625 5.070312 26.320312 5.875 26.320312 6.871094 Z M 26.320312 6.871094 "/>
    <path style=" stroke:none;fill-rule:nonzero;fill:rgb(29.019608%,54.901961%,61.568627%);fill-opacity:1;" d="M 15.609375 37.875 C 15.609375 38.871094 14.800781 39.675781 13.808594 39.675781 C 12.8125 39.675781 12.007812 38.871094 12.007812 37.875 C 12.007812 36.882812 12.8125 36.074219 13.808594 36.074219 C 14.800781 36.074219 15.609375 36.882812 15.609375 37.875 Z M 15.609375 37.875 "/>
    <path style=" stroke:none;fill-rule:nonzero;fill:rgb(29.019608%,54.901961%,61.568627%);fill-opacity:1;" d="M 35.140625 38.632812 C 35.140625 39.628906 34.332031 40.433594 33.339844 40.433594 C 32.34375 40.433594 31.539062 39.628906 31.539062 38.632812 C 31.539062 37.640625 32.34375 36.835938 33.339844 36.835938 C 34.332031 36.835938 35.140625 37.640625 35.140625 38.632812 Z M 35.140625 38.632812 "/>
  </g>
</svg>

<svg xmlns="http://www.w3.org/2000/svg" width="64" height="64" viewBox="0 0 48 48">
 <g>
  <path d="m 23.02 18 l 1.961 0 c 2.938 0 3.02 3.059 3.02 3.059 l 0 2.629 c 0 1 -2 3.059 -2 3.059 l 0 1.316 l 4 2.188 l 0 1.75 l -12 0 l 0 -1.75 l 4 -2.188 l 0 -1.316 c 0 0 -2.01 -2.059 -2 -3.059 l 0 -2.629 c 0 0 0.082 -3.059 3.02 -3.059 m 0 0" style="fill:#4a8c9c;fill-opacity:1;stroke:none;fill-rule:nonzero"/>
  <path d="m 24 6 c -9.934 0 -18 8.07 -18 18 c 0 9.934 8.07 18 18 18 c 9.934 0 18 -8.07 18 -18 c 0 -9.934 -8.07 -18 -18 -18 m 0 1.5 c 9.125 0 16.5 7.379 16.5 16.5 c 0 9.121 -7.375 16.5 -16.5 16.5 c -9.125 0 -16.5 -7.379 -16.5 -16.5 c 0 -9.121 7.375 -16.5 16.5 -16.5 m 0 0" style="fill:#4a8c9c;fill-opacity:1;stroke:none;fill-rule:nonzero"/>
  <path d="m 24 11.5 c -6.895 0 -12.5 5.605 -12.5 12.5 c 0 6.895 5.605 12.5 12.5 12.5 c 6.895 0 12.5 -5.605 12.5 -12.5 c 0 -6.895 -5.605 -12.5 -12.5 -12.5 m 0 1.5 c 6.086 0 11 4.918 11 11 c 0 6.086 -4.914 11 -11 11 c -6.086 0 -11 -4.918 -11 -11 c 0 -6.086 4.914 -11 11 -11 m 0 0" style="fill:#4a8c9c;fill-opacity:1;stroke:none;fill-rule:nonzero"/>
  <path d="m 14.469 20.621 c 0 0.992 -0.805 1.801 -1.801 1.801 c -0.992 0 -1.801 -0.809 -1.801 -1.801 c 0 -0.996 0.809 -1.801 1.801 -1.801 c 0.996 0 1.801 0.805 1.801 1.801 m 0 0" style="fill:#4a8c9c;fill-opacity:1;stroke:none;fill-rule:nonzero"/>
  <path d="m 35.992 18.246 c 0 0.992 -0.805 1.801 -1.801 1.801 c -0.992 0 -1.801 -0.809 -1.801 -1.801 c 0 -0.996 0.809 -1.801 1.801 -1.801 c 0.996 0 1.801 0.805 1.801 1.801 m 0 0" style="fill:#4a8c9c;fill-opacity:1;stroke:none;fill-rule:nonzero"/>
  <path d="m 26.32 6.871 c 0 0.996 -0.805 1.801 -1.801 1.801 c -0.992 0 -1.797 -0.805 -1.797 -1.801 c 0 -0.996 0.805 -1.801 1.797 -1.801 c 0.996 0 1.801 0.805 1.801 1.801 m 0 0" style="fill:#4a8c9c;fill-opacity:1;stroke:none;fill-rule:nonzero"/>
  <path d="m 15.609 37.875 c 0 0.996 -0.809 1.801 -1.801 1.801 c -0.996 0 -1.801 -0.805 -1.801 -1.801 c 0 -0.992 0.805 -1.801 1.801 -1.801 c 0.992 0 1.801 0.809 1.801 1.801 m 0 0" style="fill:#4a8c9c;fill-opacity:1;stroke:none;fill-rule:nonzero"/>
  <path d="m 35.14 38.633 c 0 0.996 -0.809 1.801 -1.801 1.801 c -0.996 0 -1.801 -0.805 -1.801 -1.801 c 0 -0.992 0.805 -1.797 1.801 -1.797 c 0.992 0 1.801 0.805 1.801 1.797 m 0 0" style="fill:#4a8c9c;fill-opacity:1;stroke:none;fill-rule:nonzero"/>
 </g>
</svg>
